X: 20383
T: John D. McGurk's
R: jig
M: 6/8
K: Dmajor
|:~f2 d f ~a2|g.e.c A.c.e|d ~A2 e ~A2|f ~A2 e.f.g|
fzd f ~a2|g.e.c A.B.c|dB/c/d f ~a2|1 gec d2 e:|2 gec d2 d||
K: AMaj
|:c.e.a e.c.e|d.B.G E.G.B|A ~e2 B ~e2|c.e.c B.c.d|
cza e.c.e|d.B.G E.G.B|~A3 c.e.c|1 d.B.G ~A2 B:|2 e.f.g a2 =g||

